X:70
T: Man Of The House
M: 4/4
L: 1/8
R: reel
K: Emin
|E2BE GABG|E2BE ADFD|E2BE GABe|dBAc BEED|
|E2BE GABG|E2BE ADFD|E2BE GABe|dBAc BEEB||
|efge fgaf|gfed edBd|efge fgaf|gfed Beed|
|efge fgaf|gfed efga|bgaf gfed|eBBA GEFD||
